X:1
T:[ID 8-124]
T:[ID 8-124]
T:Bezeichnung standardisiert: Walzer Waltzer In anderer Quelle: 18. Dantz - Johann Friedrich Drey\sser, 1720 (Anm. S. Wascher); In dieser Quelle auch als: Angeloise oder Waltzer In dieser Quelle auch als: Schwabisch
T:Urheber unbekannt Erstbeleg: 1720 (Datum in der schriftlichen Quelle) Datum in der hier transkribierten schriftlichen Quelle: 1792
C:Urheber unbekannt
C:Erstbeleg: 1720 (Datum in der schriftlichen Quelle)
C:Datum in der hier transkribierten schriftlichen Quelle: 1792
L:1/8
M:3/8
K:D
V:1 treble 
V:1
 DFA | d2 f | gec | d/c/d/e/d | DFA | d2 f | gec | d3 :: A(g/e/)(g/e/) | A(f/d/)(f/d/) | %10
 c(e/c/)(e/c/) | d/c/d/e/d | A(g/e/)(g/e/) | A(f/d/)(f/d/) | c(e/c/)(e/c/) | d3 :: f/e/ | d2 f/e/ | %18
 d2 f | ee/d/e/f/ | d/c/d/e/d | a2 f/e/ | d2 f | ee/d/e/f/ | d2 :| %25

